X: 0784
T: LOCH EARN, A REEL
B: Oliver Ditson "The Boston Collection of Instrumental Music" 1910 p.78 #4
F: http://conquest.imslp.info/files/imglnks/usimg/8/8f/IMSLP175643-PMLP309456-bostoncollection00bost_bw.pdf
%: 2012 John Chambers <jc:trillian.mit.edu>
M: 4/4
L: 1/8
K: G
d | g2dB ~G2BG | ~E2AE FD Dd | g2dB ~G2BG |  EAFD G2G :|
d | efge  fgab | Tgfge fddf  | efge  fgag | Tfefd g2B ||
d | efge  dBgB |  ceBd AFED  | GABG EG ce | dB cA G2G |]

%%sep 1 1 500
%%sep 1 1 500
